!!!COM:	la Rue, Pierre de
!!!CDT:	~1452///-1518/11/20
!!!OPR:	Missa Nunca fu&eacute; pena mayor
!!!ONM:	3
!!!OTL:	Credo
!!!AGN:	Mass; Credo
!!!SCT:	Rue1020c
!!!SCA:	Rue1020c
!!!voices:	4
!!!voices-OPR:	4
**kern	**kern	**kern	**kern
*staff4	*staff3	*staff2	*staff1
*Ivox	*Ivox	*Ivox	*Ivox
*I"Bassus	*I"Tenor	*I"Contra	*I"Discantus
*I'B	*I'T	*I'C	*I'D
*>[A,B]	*>[A,B]	*>[A,B]	*>[A,B]
*>A	*>A	*>A	*>A
*clefF4	*clefGv2	*clefGv2	*clefG2
*k[]	*k[]	*k[]	*k[]
*M3/1	*M3/1	*M3/1	*M3/1
*met(O)	*met(O)	*met(O)	*met(O)
!!section: Patrem
!!!OMD: Patrem
=1-	=1-	=1-	=1-
1r	[0.e	1E	0.r
1r	.	0G	.
1E	.	.	.
=2	=2	=2	=2
1AA	0.e_	1A	1e
1E	.	1.B	0g
2E\	.	.	.
2E\	.	[2c\	.
=3	=3	=3	=3
1AA	0.e_	2c\]	1a
.	.	4B\	.
.	.	4A/	.
1E	.	1.G	1.b
1r	.	.	.
.	.	[2A/	[2cc\
=4	=4	=4	=4
1r	0.e]	2A/]	2cc\]
.	.	4G/	4b\
.	.	4F/	4a/
1r	.	1E	1g
1E	.	1r	2r
.	.	.	[2g/
=5	=5	=5	=5
2E\	[0.c	1r	2g/]
1F	.	.	1a
.	.	1r	.
4E\	.	.	4g/
4D\	.	.	4f/
2C/	.	[1G	2e/
[2E\	.	.	[2g/
=6	=6	=6	=6
4E\]	0.c]	2G/]	4g/]
4D\	.	.	4f/
4C/	.	1A	4e/
4BB/	.	.	4d/
0AA	.	.	2c/
.	.	4G/	2.cc\
.	.	4F/	.
.	.	1E	.
.	.	.	4b\
.	.	.	4a/
.	.	.	4g/
=7	=7	=7	=7
2r	0d	1D	1f
2D\	.	.	.
2D\	.	1r	2r
1F	.	.	2a/
.	1A	2r	2a/
2F\	.	2A/	[2cc\
=8	=8	=8	=8
0C	[0.e	2A/	2cc\]
.	.	1c	2cc\
.	.	.	0g
.	.	2c\	.
2r	.	[1G	.
[2E\	.	.	.
=9	=9	=9	=9
2E\]	1e]	1G]	2r
1G	.	.	1b
.	0d	2r	.
1D	.	2B\	1dd
.	.	2.d\	.
[2F\	.	.	[2a/
.	.	4c\	.
=10	=10	=10	=10
2F\]	0c	0A	2a/]
4E\	.	.	1cc
4D\	.	.	.
2C/	.	.	.
2D\	.	.	4b\
.	.	.	4a/
2E\	2.c\	2.c\	2g/
2F\	.	.	2a/
.	4d\	4B\	.
=11	=11	=11	=11
0.E	0.e	2G/	2b\
.	.	2A/	2cc\
.	.	2B\	2b\
.	.	2c\	1a
.	.	1B	.
.	.	.	2g#i/
=12	=12	=12	=12
0F	0.r	1A	1.a
.	.	2r	.
.	.	2A/	4g/
.	.	.	4f/
1E	.	2B\	1g
.	.	2c\	.
=13	=13	=13	=13
1D	0.r	0d	1f
2r	.	.	2r
2D\	.	.	2f/
2E\	.	1c	2g/
2F\	.	.	2a/
=14	=14	=14	=14
1G	0.r	2r	2b-i\
.	.	2B\	2g/
1F	.	2c\	1a
.	.	2d\	.
2r	.	1e	2r
2E\	.	.	2g/
=15	=15	=15	=15
2F\	1r	1d	2a/
2G\	.	.	2b\
1A	2r	2A/	2cc\
.	2c\	2c\	2a/
1G	2d\	2B\	2b\
.	2e\	2E/	2g/
=16	=16	=16	=16
1.F	[0.f	0c	2a/
.	.	.	2b\
.	.	.	0cc
2F\	.	.	.
1F	.	1A	.
=17	=17	=17	=17
0BB-	0.f]	0B-	1dd
.	.	.	1dd
2.F\	.	1A	[1cc
4C/	.	.	.
=18	=18	=18	=18
0C	0e	1.c	2cc\]
.	.	.	4b\
.	.	.	4a/
.	.	.	2g/
.	.	4B\	2.cc\
.	.	4A/	.
1E	1c	1G	.
.	.	.	4dd\
.	.	.	2ee\
=19	=19	=19	=19
1D	1d	[0.A	1ff
1C	1e	.	2ee\
.	.	.	1ee
1D	1f	.	.
.	.	.	2dd\
=20	=20	=20	=20
0AA	1e	0A]	2ee\
.	.	.	1cc
.	2r	.	.
.	2c\	.	4b\
.	.	.	4a/
1r	2d\	1G	1b
.	2e\	.	.
=21	=21	=21	=21
1D	1f	0.A	2a/
.	.	.	2d/
1C	2e\	.	2.e/
.	1e	.	.
.	.	.	4g/
1D	.	.	1f
.	2d\	.	.
=22	=22	=22	=22
2AA/	0e	0.r	4e/
.	.	.	4f/
2A\	.	.	4g/
.	.	.	4a/
2G\	.	.	2b\
2.A\	.	.	2.cc\
.	1c	.	.
8G\L	.	.	4dd\
8F\J	.	.	.
2E\	.	.	2ee\
=23	=23	=23	=23
2F\	1d	0.r	2dd\
1G	.	.	4cc\
.	.	.	2b\
.	2B\	.	.
.	.	.	4a/
2A\	2c\	.	1a
1E	1B	.	.
.	.	.	2g#i/
=24	=24	=24	=24
2AA/	[0.A	1r	0.a
1D	.	.	.
.	.	2r	.
2C/	.	2e\	.
2.D\	.	2.f\	.
4E\	.	4e\	.
=25	=25	=25	=25
4F\	0A]	2d\	0.r
4G\	.	.	.
2A\	.	2c\	.
1D	.	4d\	.
.	.	4c\	.
.	.	4B\	.
.	.	4A/	.
2r	1G	1B	.
2E\	.	.	.
=26	=26	=26	=26
2.F\	[0.A	1A	0.r
4E\	.	.	.
2D\	.	2r	.
2C/	.	2e\	.
2D\	.	2.f\	.
2AA/	.	.	.
.	.	4e\	.
=27	=27	=27	=27
2D\	0.A_	2d\	2r
2AA/	.	2c\	2ee\
2.D\	.	2d\	2.ff\
.	.	2A/	.
4C/	.	.	4ee\
2D\	.	2r	2dd\
2AA/	.	2e\	2cc\
=28	=28	=28	=28
2D\	0.A_	2.f\	2dd\
2D\	.	.	2a/
.	.	4e\	.
2.F\	.	2d\	2r
.	.	2c\	2a/
4E\	.	.	.
2D\	.	2d\	2.a/
2C/	.	[2A/	.
.	.	.	4g/
=29	=29	=29	=29
1D	0.A]	2A/]	2f/
.	.	1d	2d/
1AA	.	.	2e/
.	.	2c#i\	2e/
1D	.	[1d	1d
=30	=30	=30	=30
2r	0.r	2d\]	1r
1D	.	4c\	.
.	.	4B\	.
.	.	1A	1r
1F	.	.	.
.	.	1r	1d
2G\	.	.	.
=31	=31	=31	=31
1A	0.r	0.r	1f
0B-	.	.	1g
.	.	.	1g
=32	=32	=32	=32
2.A\	0.r	2r	1a
.	.	1A	.
4G\	.	.	.
2.F\	.	.	2r
.	.	1c	1a
4E\	.	.	.
2F\	.	.	.
2D\	.	2d\	2a/
=33	=33	=33	=33
1A	0.r	1e	1cc
0D	.	0f	1dd
.	.	.	1dd
=34	=34	=34	=34
1C	[0.c	2e\	2ee\
.	.	2.c\	2ee\
1AA	.	.	2ee\
.	.	4d\	.
.	.	2e\	2.cc\
2r	.	1A	.
.	.	.	4dd\
2A\	.	.	2ee\
=35	=35	=35	=35
2A\	0c]	2.F/	1a
2.F\	.	.	.
.	.	4G/	.
.	.	0A	2r
4G\	.	.	.
2A\	.	.	2ee\
1D	1d	.	1ff
=36	=36	=36	=36
1r	0c	1A	0ee
1r	.	1A	.
1E	1B	1r	1ee
=37	=37	=37	=37
0F	0.A	1A	1.cc
.	.	1c	.
.	.	.	2b\
1F	.	1d	1a
=38	=38	=38	=38
2E\	0.r	0e	2g/
1A	.	.	1cc
4G\	.	.	4b\
4F\	.	.	4a/
2G\	.	1e	2b\
2A\	.	.	2cc\
=39	=39	=39	=39
1D	0A	1.f	2.a/
.	.	.	4b\
1r	.	.	2cc\
.	.	4e\	1dd
.	.	4d\	.
1r	1A	2e\	.
.	.	2f\	2cc#i\
=40	=40	=40	=40
0.r	1.B	2.d\	1.dd
.	.	4e\	.
.	.	2f\	.
.	4A/	1g	4cc\
.	4G/	.	4b\
.	1A	.	2.cc\
.	.	2f#i\	.
.	.	.	4dd\
=41	=41	=41	=41
0.r	1.G	1g	1.b
.	.	1d	.
.	4F#i/	.	4a/
.	4E/	.	4g/
.	1F#i	1r	1a
=42	=42	=42	=42
1.E	1G	1G	2b\
.	.	.	1g
.	1r	2G/	.
4D\	.	1A	4f#i/
4C/	.	.	4e/
1D	1r	.	1f#i
.	.	2A/	.
=43	=43	=43	=43
2E\	1G	1G	1g
2C/	.	.	.
2E\	2G/	2G/	1r
1F	1A	1c	.
.	.	.	1r
2F\	2A/	2d\	.
=44	=44	=44	=44
1E	1G	1e	1g
2E\	2G/	1r	2g/
1F	1c	.	1a
.	.	1A	.
2F\	2d\	.	2a/
=45	=45	=45	=45
1E	1e	1B	1g
1r	2e\	1c	2g/
.	1f	.	1cc
1r	.	2.A/	.
.	2f\	.	2dd\
.	.	4B\	.
=46	=46	=46	=46
0.r	1.e	4c\	1ee
.	.	4d\	.
.	.	4e\	.
.	.	4f\	.
.	.	2g\	2ee\
.	4d\	1a	1ff
.	4c\	.	.
.	1d	.	.
.	.	2a\	2ff\
=47	=47	=47	=47
1E	1e	2g\	2.ee\
.	.	2.e\	.
.	.	.	4dd\
2E\	1r	.	2b\
.	.	4d\	.
1F	.	4c\	2a/
.	.	4B\	.
.	1r	1A	2.cc\
2F\	.	.	.
.	.	.	4b\
=48	=48	=48	=48
1.E	0g	2B\	1g
.	.	4c\	.
.	.	4d\	.
.	.	2e\	1r
2F\	.	1d	.
2G\	1g	.	2b\
2C/	.	[2c\	4cc\
.	.	.	4dd\
=49	=49	=49	=49
1G	1.g	2c\]	2ee\
.	.	2B\	1dd
1r	.	1c	.
.	2g\	.	1cc
1G	1g	1d	.
.	.	.	2b\
=50	=50	=50	=50
2C/	0g	2c\	2cc\
1G	.	2d\	4b\
.	.	.	4cc\
.	.	2B\	1dd
1G	.	4c\	.
.	.	4d\	.
.	1g	2.e\	2b\
2E\	.	.	4cc\
.	.	4d\	4dd\
=51	=51	=51	=51
2E\	2.g\	2c\	2ee\
4F\	.	2B\	1dd
4G\	4f\	.	.
1A	2e\	1c	.
.	2c\	.	1cc
1G	1d	1g	.
.	.	.	2b\
=52	=52	=52	=52
0.C	0.c	2r	1cc
.	.	1g	.
.	.	.	2r
.	.	2g\	1g
.	.	2e\	.
.	.	2e\	2g/
=53	=53	=53	=53
0.r	0.r	2.f\	2.a/
.	.	4e\	4g/
.	.	2d\	2f/
.	.	2c\	2e/
.	.	2B\	1d
.	.	4c\	.
.	.	4d\	.
=54	=54	=54	=54
1r	0.r	2e\	2c/
.	.	1d	2B/
1r	.	.	1c
.	.	1c	.
2r	.	.	1d
2G\	.	2B\	.
=55	=55	=55	=55
2A\	0.r	1c	1c
2c\	.	.	.
2B\	.	1r	2r
1c	.	.	2g/
.	.	1r	2a/
4B\	.	.	2cc\
4A\	.	.	.
=56	=56	=56	=56
2G\	0.r	0.r	2b\
2A\	.	.	1cc
1F	.	.	.
.	.	.	4b\
.	.	.	4a/
2E\	.	.	2g/
2F\	.	.	2a/
=57	=57	=57	=57
2D\	0.r	0.r	2f/
2E\	.	.	2.g/
2G\	.	.	.
.	.	.	4f/
2A\	.	.	1e
2.F\	.	.	.
.	.	.	2d/
4E\	.	.	.
=58	=58	=58	=58
2C/	[0.c	1r	1e
2E\	.	.	.
2F\	.	2r	1r
2E\	.	2e\	.
2.A\	.	2f\	1r
.	.	2e\	.
4G\	.	.	.
=59	=59	=59	=59
2F\	0c]	2.a\	0.r
2E\	.	.	.
.	.	4g\	.
2.A\	.	4f\	.
.	.	4e\	.
.	.	1e	.
4G\	.	.	.
1F	1A	.	.
.	.	2d\	.
=60	=60	=60	=60
1E	0B	0e	1g
1E	.	.	2g/
.	.	.	2g/
2C/	[1c	1e	2g/
2C/	.	.	2g/
=61	=61	=61	=61
2F\	0.c]	2c\	1.a
2F\	.	2c\	.
1F	.	2f\	.
.	.	2f\	2a/
1F	.	1f	1a
=62	=62	=62	=62
1G	1B	2.d\	1g
.	.	4d\	.
2D\	0A	2d\	1f
2D\	.	2d\	.
1F	.	[1c	1f
=63	=63	=63	=63
1C	0G	1c]	2.e/
.	.	.	4f/
2r	.	1B	4g/
.	.	.	4a/
1G	.	.	1b
.	1r	1r	.
2F\	.	.	2a/
=64	=64	=64	=64
2G\	2r	2r	2.b\
2G\	1G	1B	.
.	.	.	4dd\
1A	.	.	1cc
.	2F/	2A/	.
2E\	1G	2B\	1b
2G\	.	[2e\	.
=65	=65	=65	=65
1F	1A	2e\]	1r
.	.	2d\	.
2E\	1G	2e\	2r
1G	.	2B\	1b
.	1A	1c	.
2F\	.	.	2a/
=66	=66	=66	=66
2G\	2r	2B\	2b\
2G\	1G	2G/	2b\
1A	.	2r	1cc
.	2F/	4c\	.
.	.	4d\	.
1E	1G	4e\	1b
.	.	4f\	.
.	.	2g\	.
=67	=67	=67	=67
0.r	1A	2e\	2r
.	.	1f	2cc\
.	2G/	.	2b\
.	2E/	1e	2g/
.	1F	.	1a
.	.	2d\	.
=68	=68	=68	=68
2r	1E	1e	1g
2E\	.	.	.
2F\	1r	2r	1a
2F\	.	2d\	.
1E	1r	2.e\	1g
.	.	4d\	.
=69	=69	=69	=69
2r	0.r	4c\	1a
.	.	4B\	.
2F\	.	1d	.
2E\	.	.	2g/
2C/	.	1c	2e/
1D	.	.	1f
.	.	2B\	.
=70	=70	=70	=70
0.AA;	0.A;	0.c;	0.e;
=71	=71	=71	=71
1r	1r	1r	1r
1C;	1G;	1c;	1e;
1F;	1A;	1c;	1f;
=72	=72	=72	=72
1C;	1G;	1c;	1e;
1D;	1F;	1A;	1d;
1D;	1F;	1A;	1d;
=73	=73	=73	=73
0.AAl	0.El	0.Al	0.cl
!!LO:LB:i:g=z
=74||	=74||	=74||	=74||
*>B	*>B	*>B	*>B
*clefF4	*clefGv2	*clefGv2	*clefG2
*k[]	*k[]	*k[]	*k[]
*M2/1	*M2/1	*M2/1	*M2/1
*met(C|)	*met(C|)	*met(C|)	*met(C|)
!!section: Crucifixus
!!!OMD: Crucifixus
0r	0r	1r	1g
.	.	1c	2g/
.	.	.	[2g/
=75	=75	=75	=75
0r	0r	2c\	2g/]
.	.	1c	2g/
.	.	.	1a
.	.	2c\	.
=76	=76	=76	=76
0r	0r	1d	1b
.	.	1e	[1cc
=77	=77	=77	=77
1r	0r	1f	2cc\]
.	.	.	4b\
.	.	.	4a/
1C	.	1e	[1g
=78	=78	=78	=78
2C/	0r	1c	1g]
1C	.	.	.
.	.	1e	2.g/
2C/	.	.	.
.	.	.	4a/
=79	=79	=79	=79
1D	0r	2.d\	2b\
.	.	.	1a
.	.	4c\	.
1E	.	1B	.
.	.	.	2g#i/
=80	=80	=80	=80
0F	0r	1A	0a
.	.	2.c\	.
.	.	4d\	.
=81	=81	=81	=81
1E	0r	2.e\	1g
.	.	4d\	.
1D	.	4B\	1f
.	.	2.B\	.
=82	=82	=82	=82
1C	1c	1c	1e
1C	[1c	1e	1g
=83	=83	=83	=83
1.F	2c\]	1.f	1.a
.	2c\	.	.
.	[1c	.	.
2F\	.	2f\	2a/
=84	=84	=84	=84
1F	1c]	1f	1a
1F	1c	1f	1a
=85	=85	=85	=85
0C	0c	0e	0g
=86	=86	=86	=86
0C	0G	0c	0e
=87	=87	=87	=87
1E	1.G	1B	1e
2E\	.	2B\	2e/
[2E\	2G/	[2B\	[2e/
=88	=88	=88	=88
2E\]	1G	2B\]	2e/]
2E\	.	2B\	2e/
1E	1G	1e	1g
=89	=89	=89	=89
1D	0A	2.A/	1f
.	.	4B\	.
2C/	.	2c\	2e/
2F\	.	2d\	2f/
=90	=90	=90	=90
2.E\	0B	0G	2g/
.	.	.	4f/
4F\	.	.	4e/
1G	.	.	1d
=91	=91	=91	=91
0A	1.c	1r	0c
.	.	1c	.
.	2d\	.	.
=92	=92	=92	=92
[0E	[0e	2c\	1r
.	.	2c\	.
.	.	[1B	1g
=93	=93	=93	=93
0E]	0e]	0B]	2g/
.	.	.	2g/
.	.	.	1g
=94	=94	=94	=94
1F	0r	2.A/	0a
.	.	4B\	.
2F\	.	2c\	.
2F\	.	[2d\	.
=95	=95	=95	=95
1E	0r	2d\]	1g
.	.	2c#i\	.
2.D\	.	[1d	2.f/
4E\	.	.	4g/
=96	=96	=96	=96
2F\	0r	1d]	2a/
1G	.	.	1b
.	.	[1e	.
[2A\	.	.	[2cc\
=97	=97	=97	=97
2A\]	0r	1e]	2cc\]
4G\	.	.	4b\
4F\	.	.	4a/
1E	.	1e	2g/
.	.	.	2a/
=98	=98	=98	=98
1E	0r	2r	1b
.	.	1B	.
1E	.	.	1e
.	.	[2c\	.
=99	=99	=99	=99
0r	0e	2c\]	2r
.	.	4B\	2b\
.	.	4A/	.
.	.	2G/	2b\
.	.	[2A/	[2cc\
=100	=100	=100	=100
0r	1e	2A/]	2cc\]
.	.	4G/	4b\
.	.	4F/	4a/
.	1e	2E/	2g/
.	.	2F/	2a/
=101	=101	=101	=101
1.G	0d	2G/	2b\
.	.	2A/	2cc\
.	.	2B\	[1dd
4F\	.	2c\	.
4E\	.	.	.
=102	=102	=102	=102
2D\	0d	1d	2dd\]
1G	.	.	4cc\
.	.	.	4b\
.	.	1r	1a
2F#i\	.	.	.
=103	=103	=103	=103
0G	0d	1B	1g
.	.	2B\	1dd
.	.	[2B\	.
=104	=104	=104	=104
2G\	0g	2B\]	1dd
2.G\	.	2B\	.
.	.	1B	1dd
4F\	.	.	.
4E\	.	.	.
4D\	.	.	.
=105	=105	=105	=105
1C	0g	0c	1ee
1C	.	.	4ee\
.	.	.	4dd\
.	.	.	4cc\
.	.	.	4b\
=106	=106	=106	=106
1F	0f	1.c	1a
1F	.	.	1cc
.	.	4B\	.
.	.	4A/	.
=107	=107	=107	=107
1F	1f	1A	1cc
[1F	1f	1A	1cc
=108	=108	=108	=108
1F]	1f	1A	1cc
1F	1f	1A	1cc
=109	=109	=109	=109
0D	0f	1A	1dd
.	.	1d	1ff
=110	=110	=110	=110
0C	[0g	2G/	1.ee
.	.	1c	.
.	.	4B\	4dd\
.	.	4A/	4cc\
=111	=111	=111	=111
0r	0g]	2.G/	2b\
.	.	.	1dd
.	.	4A/	.
.	.	2B\	.
.	.	2c\	2cc\
=112	=112	=112	=112
0r	1r	2.G/	2b\
.	.	.	1dd
.	.	4A/	.
.	2r	2B\	.
.	[2g\	2c\	4cc\
.	.	.	4b\
=113	=113	=113	=113
1r	2g\]	1d	2.a/
.	2f\	.	.
.	.	.	4b\
2.C/	2e\	1G	4cc\
.	.	.	4dd\
.	[2g\	.	[2ee\
4D\	.	.	.
=114	=114	=114	=114
2E\	2g\]	0r	2ee\]
2F\	4f\	.	1cc
.	4e\	.	.
1G	1d	.	.
.	.	.	2b\
=115	=115	=115	=115
0C	1c	0r	0cc
.	2r	.	.
.	2c\	.	.
=116	=116	=116	=116
1r	1B	0r	0r
1F	1A	.	.
=117	=117	=117	=117
1E	1G	0r	0r
1D	1d	.	.
=118	=118	=118	=118
1C	1e	0r	0r
1G	2d\	.	.
.	[2e\	.	.
=119	=119	=119	=119
1A	2e\]	0r	0r
.	4d\	.	.
.	4c\	.	.
2G\	2B\	.	.
[2A\	[2c\	.	.
=120	=120	=120	=120
2A\]	4c\]	0r	1r
.	4B\	.	.
1G	4A/	.	.
.	4G/	.	.
.	1A	.	1cc
2F#i\	.	.	.
=121	=121	=121	=121
1G	1G	1r	1b
1r	1r	1f	1a
=122	=122	=122	=122
0r	0r	1e	1g
.	.	1d	1dd
=123	=123	=123	=123
0r	0r	1c	1ee
.	.	1g	2dd\
.	.	.	[2ee\
=124	=124	=124	=124
0r	0r	1a	2ee\]
.	.	.	4dd\
.	.	.	4cc\
.	.	2g\	2b\
.	.	[2a\	2cc\
=125	=125	=125	=125
2r	1r	2a\]	2a/
1A	.	2a\	1cc
.	2r	2e\	.
2G\	[2e\	[2g\	2b\
=126	=126	=126	=126
2E\	2e\]	2g\]	2g/
1G	2d\	2g\	1b
.	2B\	2d\	.
2F\	[2d\	[2f\	2a/
=127	=127	=127	=127
2D\	2d\]	2f\]	2f/
1F	2c\	2f\	1a
.	2A/	2c\	.
2E\	[2c\	2e\	2g/
=128	=128	=128	=128
2C/	2c\]	2.g\	2.e/
1G	2B\	.	.
.	.	4f\	4f/
.	4G/	4e\	2g/
.	4A/	4d\	.
2F\	4B\	[2f\	[2a/
.	4c\	.	.
=129	=129	=129	=129
2D\	2d\	4f\]	2a/]
.	.	4e\	.
2E\	2G/	2c\	1g
1D	1A	1d	.
.	.	.	2f#i/
=130	=130	=130	=130
1r	2r	0B	1g
.	1G	.	.
1E	.	.	2r
.	4F/	.	[2g/
.	4E/	.	.
=131	=131	=131	=131
1E	2.G/	1r	2g/]
.	.	.	4f/
.	4A/	.	4e/
1E	2B\	1e	2.g/
.	2E/	.	.
.	.	.	4a/
=132	=132	=132	=132
0E	2r	2e\	2b\
.	1B	1e	2e/
.	.	.	2r
.	[2G/	2e\	[2b\
=133	=133	=133	=133
1E	4G/]	1.e	2b\]
.	4A/	.	.
.	2B\	.	2.g/
1E	2c\	.	.
.	.	.	4a/
.	[2e\	2e\	2b\
=134	=134	=134	=134
1AA	2e\]	1e	2cc\
.	4d\	.	1a
.	4c\	.	.
1E	1B	1e	.
.	.	.	2g#i/
=135	=135	=135	=135
1F	0A	2c\	0a
.	.	1f	.
2r	.	.	.
[2F\	.	4e\	.
.	.	4d\	.
=136	=136	=136	=136
2F\]	1r	2.f\	0r
4E\	.	.	.
4D\	.	4g\	.
2.F\	2r	1a	.
.	[2c\	.	.
4G\	.	.	.
=137	=137	=137	=137
1A	2c\]	0e	2r
.	4B\	.	1cc
.	4A/	.	.
1AA	2.c\	.	.
.	.	.	4b\
.	4d\	.	4a/
=138	=138	=138	=138
1r	1e	2r	2.cc\
.	.	2e\	.
.	.	.	4dd\
[1AA	1A	2e\	1ee
.	.	[2c\	.
=139	=139	=139	=139
1AA]	2r	2c\]	1a
.	2e\	2A/	.
1AA	2e\	[1A	2r
.	[2c\	.	2ee\
=140	=140	=140	=140
1AA	2c\]	2A/]	2ee\
.	2A/	4G/	1cc
.	.	4F/	.
1AA	1A	1E	.
.	.	.	2a/
=141	=141	=141	=141
[0D	[0f	1r	2a/
.	.	.	2dd\
.	.	1A	2dd\
.	.	.	[2ff\
=142	=142	=142	=142
0D]	0f]	1A	4ff\]
.	.	.	4ee\
.	.	.	4dd\
.	.	.	4cc\
.	.	1A	1dd
=143	=143	=143	=143
0AA	1.e	1.c	0ee
.	2d\	4B\	.
.	.	4A/	.
=144	=144	=144	=144
0E	1c	0G	0r
.	1B	.	.
=145	=145	=145	=145
[0F	2A/	2.A/	0r
.	2d\	.	.
.	.	4G/	.
.	2c\	4A/	.
.	.	4B\	.
.	[2f\	[2c\	.
=146	=146	=146	=146
0F]	4f\]	4c\]	0r
.	4e\	4B\	.
.	4d\	4A/	.
.	4c\	4G/	.
.	1d	1A	.
=147	=147	=147	=147
1.E	[0e	1r	0r
.	.	1B	.
4F\	.	.	.
4G\	.	.	.
=148	=148	=148	=148
1A	0e_	1c	1r
1E	.	1B	1b
=149	=149	=149	=149
0r	0e]	1A	1cc
.	.	1G	1b
=150	=150	=150	=150
0r	[0e	1.c	1a
.	.	.	1g
.	.	2B\	.
=151	=151	=151	=151
0r	0e_	1.A	1cc
.	.	.	2cc\
.	.	2G/	[2b\
=152	=152	=152	=152
1r	0e]	1A	2b\]
.	.	.	1a
1E	.	1B	.
.	.	.	2g#i/
=153	=153	=153	=153
1F	0c	1A	1a
1F	.	1f	1a
=154	=154	=154	=154
0F	1c	1f	1a
.	1c	1f	1a
=155	=155	=155	=155
0F	1c	1f	1a
.	1c	1F	1a
=156	=156	=156	=156
1E	1c	1G	1g
1E	1c	1G	1g
=157	=157	=157	=157
0D	1d	0A	0f
.	[1d	.	.
=158	=158	=158	=158
1.BB-	1d]	1.B-	1.f
.	1d	.	.
2BB-/	.	2B-\	2f/
=159	=159	=159	=159
1BB-	1d	1B-	1f
1BB-	1d	1B-	1f
=160	=160	=160	=160
0D	0d	0A	0f
=161	=161	=161	=161
0AA	[0c	1A	0e
.	.	2r	.
.	.	2A/	.
=162	=162	=162	=162
2r	0c]	2e\	1r
2AA/	.	2e\	.
2E\	.	[1e	2r
2E\	.	.	2e/
=163	=163	=163	=163
1E	[0B	1e]	2g/
.	.	.	2g/
1E	.	1e	2g/
.	.	.	2g/
=164	=164	=164	=164
0E	0B]	0e	0g
=165	=165	=165	=165
1AA	[0c	0e	1a
[1A	.	.	[1a
=166	=166	=166	=166
2A\]	0c_	1r	2a/]
2A\	.	.	2a/
1A	.	1f	1a
=167	=167	=167	=167
1.F	0c]	2f\	1a
.	.	1f	.
.	.	.	1a
4E\	.	[2f\	.
4D\	.	.	.
=168	=168	=168	=168
2.D\	0d	4f\]	2.f/
.	.	4g\	.
.	.	1a	.
4E\	.	.	4g/
2F\	.	.	2a/
2G\	.	[2g\	[2b\
=169	=169	=169	=169
2G\	0e	4g\]	2b\]
.	.	4f\	.
2.A\	.	4e\	2.cc\
.	.	4d\	.
.	.	1c	.
4G\	.	.	4b\
2E\	.	.	2g/
=170	=170	=170	=170
[0D	[0f	0r	1a
.	.	.	1dd
=171	=171	=171	=171
0D]	0f]	0r	2dd\
.	.	.	1dd
.	.	.	2dd\
=172	=172	=172	=172
0r	[0e	1g	1ee
.	.	2g\	2dd\
.	.	[2g\	2cc\
=173	=173	=173	=173
1r	0e]	2g\]	1b
.	.	2g\	.
1A	.	2a\	1a
.	.	2A/	.
=174	=174	=174	=174
2G\	1r	2B\	0r
2F\	.	2A/	.
1E	1e	2B\	.
.	.	2c\	.
=175	=175	=175	=175
1D	1f	1d	0r
1A	1e	1r	.
=176	=176	=176	=176
1B	2d\	0r	0r
.	2d\	.	.
1A	1c	.	.
=177	=177	=177	=177
2G\	2B\	0r	0r
2G\	2G/	.	.
2.F\	1A	.	.
4E\	.	.	.
=178	=178	=178	=178
2C/	2G/	0r	1ee
2E\	1c	.	.
2D\	.	.	1ff
2D\	2B\	.	.
=179	=179	=179	=179
1C	1c	1e	1ee
1r	1r	1f	1dd
=180	=180	=180	=180
0r	0r	2e\	1cc
.	.	2c\	.
.	.	2d\	1b
.	.	[2e\	.
=181	=181	=181	=181
0r	0r	4e\]	4g/
.	.	4f\	4a/
.	.	2g\	4b\
.	.	.	4cc\
.	.	2f\	2a/
.	.	2g\	[2g/
=182	=182	=182	=182
0r	0r	1c	2g/]
.	.	.	1cc
.	.	1d	.
.	.	.	2b\
=183	=183	=183	=183
0r	0r	0c	1cc
.	.	.	1r
=184	=184	=184	=184
0c	0e	0g	0cc
=185	=185	=185	=185
1c	1e	1g	1cc
1c	1e	1g	1cc
=186	=186	=186	=186
1c	1e	1g	1cc
1c	1e	1g	1cc
=187	=187	=187	=187
0G	0d	0g	0b
=188	=188	=188	=188
1G	1d	1g	1b
1A	1c	2e\	1cc
.	.	2c\	.
=189	=189	=189	=189
0D	0f	0d	0a
=190	=190	=190	=190
0E	[0e	2r	1g
.	.	2B\	.
.	.	2B\	2r
.	.	[2c\	2e/
=191	=191	=191	=191
1r	0e]	2c\]	1g
.	.	2c\	.
1C	.	[1c	1g
=192	=192	=192	=192
1C	1r	1c]	0g
1C	1c	1G	.
=193	=193	=193	=193
1C	1c	2r	1e
.	.	1c	.
[1C	1c	.	2e/
.	.	2d\	[2g/
=194	=194	=194	=194
2C/]	0c	2e\	2g/]
2D\	.	2f\	2f/
2E\	.	1g	1e
2F\	.	.	.
=195	=195	=195	=195
0G	1.B	0g	1d
.	.	.	2r
.	2B\	.	[2g/
=196	=196	=196	=196
[0G	1B	2r	4g/]
.	.	.	4a/
.	.	2.G/	4b\
.	.	.	4cc\
.	1B	.	2dd\
.	.	4A/	.
.	.	4B\	2ee\
.	.	4c\	.
=197	=197	=197	=197
0G]	1B	2d\	2dd\
.	.	2e\	2g/
.	1B	2d\	2r
.	.	2G/	[2g/
=198	=198	=198	=198
2r	2.B\	2r	2g/]
2G\	.	1g	4f/
.	4c\	.	4e/
1G	2d\	.	[1d
.	2d\	4f\	.
.	.	4e\	.
=199	=199	=199	=199
0G	4d\	2d\	1d]
.	4c\	.	.
.	4B\	2G/	.
.	4A/	.	.
.	1B	1g	1d
=200	=200	=200	=200
*M3/1	*M3/1	*M3/1	*M3/1
*met(3)	*met(3)	*met(3)	*met(3)
0.C	0c	0G	0e
.	1e	1G	1g
=201	=201	=201	=201
1r	1f	1F	1a
1r	0d	1G	0b
1G	.	1g	.
=202	=202	=202	=202
0A	0c	1f	0cc
.	.	1e	.
1A	1c	1f	1cc
=203	=203	=203	=203
0G	1.d	0g	1b
.	.	.	1.dd
.	2c\	.	.
1G	1B	1g	.
.	.	.	2b\
=204	=204	=204	=204
1F	1A	0c	1.cc
0E	0G	.	.
.	.	.	2b\
.	.	1c	2a/
.	.	.	2g/
=205	=205	=205	=205
0D	[0.A	0d	0f
1C	.	1r	1e
=206	=206	=206	=206
1D	0.A]	1d	0d
0AA	.	1f	.
.	.	1e	1c
=207	=207	=207	=207
0D	1B-	0d	1d
.	1.A	.	1.f
1BB	.	1d	.
.	2G/	.	2g/
=208	=208	=208	=208
1C	0G	1e	2a/
.	.	.	2b\
0AA	.	0c	1.cc
.	1F#i	.	.
.	.	.	2dd\
=209	=209	=209	=209
1GG	1G	1g	1b
1D	2A/	1f	1.a
.	2B\	.	.
[1E	2c\	1g	.
.	2d\	.	2g/
=210	=210	=210	=210
1E]	1G	1c	0g
0D	0A	0d	.
.	.	.	1f#i
=211	=211	=211	=211
0.GGl	0.Gl	0.dl	0.gl
==	==	==	==
*-	*-	*-	*-
!!!RDF**kern: l=long note in original notation
!!!RDF**kern: i=editorial accidental
!!!RDF**kern: V=start of tuplet marker
!!!RDF**kern: Z=end of tuplet marker
!!!ENC:	Jesse Rodin; Chris Gage 10-25-2012
!!!END:	2012/11/09/
!!!EED:	Jesse Rodin
!!!EEV:	2012/12/15/
!!!ONB:	Translated from MusicXML and edited on 2012/12/15/ by Craig Sapp
!!muse2ps: T^@{OPR}^u^@{ONM}{. }@{OTL}^C^@{COM}^i2I150v85,85,85,150Q16
